X:426
T:Downfall of Paris,The. RH.427
R:air
S:Rev.R.Harrison’s MS,c1815,Cumbria
O:England
A:Temple Sowerby,Cumbria
Z:vmp.Simon Wilson. Review PJH, 2008.
M:2/4
L:1/16
Q:1/4=100
K:D
.d2(de) .d2(de)|.d2(de) (gfed)|\
.e2(ef) .e2(ef)|.e2(ef) (agfe)|\
.f2(fg) .f2(fg)|.f2(fg) (bagf)|\
.e2(ef) e2e2|e4 dcBA|!
.d2(de) .d2(de)|.d2(de) (gfed)|\
.e2(ef) .e2(ef)|.e2(ef) agfe|\
.f2(fg) a2g2|.f2(fg) a2g2|\
.f2(fd) .e2(ec)|d4d2z2:|!
|:”Pia. Dol”a8|a2f2 b2a2|\
.g2(gf) .g2(gf)|.g2(gf) g4|\
g4 g2g2|g2e2 a2g2|\
.f2(fe) .f2(fe)|.f2(fe)f4|!
“PP”.d2(de) .d2(de)|.d2(de) (gfed)|\
.e2(ef) .e2(ef)|.e2(ef) (agfe)|\
.f2(fg) a2g2|.f2(fg) a2g2|\
.f2(fd) .e2(ec)|d2d2d2z2:|!
|:(abc’d’ c’bag)|(fgab agfe)|\
d2dd e2ee|f2ff f4|\
(abc’d’ c’bag)|fgab agfe|\
d2ee f2e2|d2d2 d4:|!
|:c2d2 e2f2|g2f2 e2d2|\
c2d2 e2f2|g2f2 e2z2|\
(abc’d’ c’bag)|(fgab agfe)|
d2ee f2e2|d2d2 d2:|

